img/icons/aboutus_goals-icon_1.svg

<svg width="64" height="56" viewBox="0 0 64 56" fill="none" xmlns="http://www.w3.org/2000/svg">
<path d="M32.7818 9.7998H57.8996C60.0602 9.7998 61.7997 11.5392 61.7997 13.6998V50.0998C61.7997 52.2604 60.0602 53.9998 57.8996 53.9998H33.1996L31.4297 46.4778" stroke="url(#paint0_linear)" stroke-width="3" stroke-miterlimit="4.1" stroke-linecap="round" stroke-linejoin="round"/>
<path d="M41 46.2H5.90005C3.73942 46.2 2 44.4606 2 42.3V5.9C2 3.7394 3.73942 2 5.90005 2H30.6L41 46.2Z" stroke="url(#paint1_linear)" stroke-width="3" stroke-miterlimit="4.1" stroke-linecap="round" stroke-linejoin="round"/>
<path d="M33.2109 53.9865L40.9847 46.2129" stroke="url(#paint2_linear)" stroke-width="3" stroke-linecap="round" stroke-linejoin="round"/>
<path d="M16.2984 16.2989H22.7997C22.7997 19.2416 20.8233 21.8171 17.9811 22.5786C15.1388 23.3402 12.1394 22.0978 10.6681 19.5495C9.19676 17.0013 9.62053 13.7824 11.7012 11.7019C13.7819 9.62113 17.0008 9.19717 19.5491 10.6685" stroke="url(#paint3_linear)" stroke-width="3" stroke-miterlimit="4.1" stroke-linecap="round" stroke-linejoin="round"/>
<path d="M35.7812 20.1997H53.9813" stroke="url(#paint4_linear)" stroke-width="3" stroke-linecap="round" stroke-linejoin="round"/>
<path d="M52.6667 38.3837C49.3502 36.6079 46.5418 34.015 44.5077 30.8503C42.4736 27.6856 41.2811 24.0541 41.043 20.2996" stroke="url(#paint5_linear)" stroke-width="3" stroke-linecap="round" stroke-linejoin="round"/>
<path d="M48.7548 20.2866C48.5422 23.6687 47.5548 26.9568 45.8687 29.8963C44.1827 32.8359 41.8432 35.3482 39.0312 37.2393" stroke="url(#paint6_linear)" stroke-width="3" stroke-linecap="round" stroke-linejoin="round"/>
<path d="M44.8984 15.0178V20.2178" stroke="url(#paint7_linear)" stroke-width="3" stroke-linecap="round" stroke-linejoin="round"/>
<defs>
<linearGradient id="paint0_linear" x1="61.7997" y1="31.8998" x2="31.4297" y2="31.8998" gradientUnits="userSpaceOnUse">
<stop stop-color="#4CBA85"/>
<stop offset="1" stop-color="#2569AC"/>
</linearGradient>
<linearGradient id="paint1_linear" x1="41" y1="24.1" x2="2" y2="24.1" gradientUnits="userSpaceOnUse">
<stop stop-color="#4CBA85"/>
<stop offset="1" stop-color="#2569AC"/>
</linearGradient>
<linearGradient id="paint2_linear" x1="40.9847" y1="50.0997" x2="33.2109" y2="50.0997" gradientUnits="userSpaceOnUse">
<stop stop-color="#4CBA85"/>
<stop offset="1" stop-color="#2569AC"/>
</linearGradient>
<linearGradient id="paint3_linear" x1="22.7997" y1="16.299" x2="9.79688" y2="16.299" gradientUnits="userSpaceOnUse">
<stop stop-color="#4CBA85"/>
<stop offset="1" stop-color="#2569AC"/>
</linearGradient>
<linearGradient id="paint4_linear" x1="53.9813" y1="20.6997" x2="35.7813" y2="20.6997" gradientUnits="userSpaceOnUse">
<stop stop-color="#4CBA85"/>
<stop offset="1" stop-color="#2569AC"/>
</linearGradient>
<linearGradient id="paint5_linear" x1="52.6667" y1="29.3416" x2="41.043" y2="29.3416" gradientUnits="userSpaceOnUse">
<stop stop-color="#4CBA85"/>
<stop offset="1" stop-color="#2569AC"/>
</linearGradient>
<linearGradient id="paint6_linear" x1="48.7548" y1="28.763" x2="39.0313" y2="28.763" gradientUnits="userSpaceOnUse">
<stop stop-color="#4CBA85"/>
<stop offset="1" stop-color="#2569AC"/>
</linearGradient>
<linearGradient id="paint7_linear" x1="45.8984" y1="17.6178" x2="44.8984" y2="17.6178" gradientUnits="userSpaceOnUse">
<stop stop-color="#4CBA85"/>
<stop offset="1" stop-color="#2569AC"/>
</linearGradient>
</defs>
</svg>

<svg width="64" height="56" fill="none" xmlns="http://www.w3.org/2000/svg"><path d="M32.782 9.8H57.9c2.16 0 3.9 1.74 3.9 3.9v36.4c0 2.16-1.74 3.9-3.9 3.9H33.2l-1.77-7.522" stroke="url(#paint0_linear)" stroke-width="3" stroke-miterlimit="4.1" stroke-linecap="round" stroke-linejoin="round"/><path d="M41 46.2H5.9c-2.16 0-3.9-1.74-3.9-3.9V5.9C2 3.74 3.74 2 5.9 2h24.7L41 46.2z" stroke="url(#paint1_linear)" stroke-width="3" stroke-miterlimit="4.1" stroke-linecap="round" stroke-linejoin="round"/><path d="M33.21 53.986l7.775-7.773" stroke="url(#paint2_linear)" stroke-width="3" stroke-linecap="round" stroke-linejoin="round"/><path d="M16.298 16.299H22.8a6.501 6.501 0 11-3.25-5.63" stroke="url(#paint3_linear)" stroke-width="3" stroke-miterlimit="4.1" stroke-linecap="round" stroke-linejoin="round"/><path d="M35.781 20.2h18.2" stroke="url(#paint4_linear)" stroke-width="3" stroke-linecap="round" stroke-linejoin="round"/><path d="M52.667 38.384A22.1 22.1 0 0141.043 20.3" stroke="url(#paint5_linear)" stroke-width="3" stroke-linecap="round" stroke-linejoin="round"/><path d="M48.755 20.287a22.1 22.1 0 01-9.724 16.952" stroke="url(#paint6_linear)" stroke-width="3" stroke-linecap="round" stroke-linejoin="round"/><path d="M44.898 15.018v5.2" stroke="url(#paint7_linear)" stroke-width="3" stroke-linecap="round" stroke-linejoin="round"/><defs><linearGradient id="paint0_linear" x1="61.8" y1="31.9" x2="31.43" y2="31.9" gradientUnits="userSpaceOnUse"><stop stop-color="#4CBA85"/><stop offset="1" stop-color="#2569AC"/></linearGradient><linearGradient id="paint1_linear" x1="41" y1="24.1" x2="2" y2="24.1" gradientUnits="userSpaceOnUse"><stop stop-color="#4CBA85"/><stop offset="1" stop-color="#2569AC"/></linearGradient><linearGradient id="paint2_linear" x1="40.985" y1="50.1" x2="33.211" y2="50.1" gradientUnits="userSpaceOnUse"><stop stop-color="#4CBA85"/><stop offset="1" stop-color="#2569AC"/></linearGradient><linearGradient id="paint3_linear" x1="22.8" y1="16.299" x2="9.797" y2="16.299" gradientUnits="userSpaceOnUse"><stop stop-color="#4CBA85"/><stop offset="1" stop-color="#2569AC"/></linearGradient><linearGradient id="paint4_linear" x1="53.981" y1="20.7" x2="35.781" y2="20.7" gradientUnits="userSpaceOnUse"><stop stop-color="#4CBA85"/><stop offset="1" stop-color="#2569AC"/></linearGradient><linearGradient id="paint5_linear" x1="52.667" y1="29.342" x2="41.043" y2="29.342" gradientUnits="userSpaceOnUse"><stop stop-color="#4CBA85"/><stop offset="1" stop-color="#2569AC"/></linearGradient><linearGradient id="paint6_linear" x1="48.755" y1="28.763" x2="39.031" y2="28.763" gradientUnits="userSpaceOnUse"><stop stop-color="#4CBA85"/><stop offset="1" stop-color="#2569AC"/></linearGradient><linearGradient id="paint7_linear" x1="45.898" y1="17.618" x2="44.898" y2="17.618" gradientUnits="userSpaceOnUse"><stop stop-color="#4CBA85"/><stop offset="1" stop-color="#2569AC"/></linearGradient></defs></svg>
